Origami/48x48/apps/peek.svg

<svg width="48" height="48" version="1.1" viewBox="0 0 48 48" xmlns="http://www.w3.org/2000/svg">
 <path d="M 24,5 A 20,20 0 0 0 4,25 20,20 0 0 0 24,45 20,20 0 0 0 44,25 20,20 0 0 0 24,5 Z" style="opacity:.2"/>
 <path d="m24 4a20 20 0 0 0 -20 20 20 20 0 0 0 20 20 20 20 0 0 0 20 -20 20 20 0 0 0 -20 -20z" style="fill:#ff8e20"/>
 <path d="m24 5c-3.263818 0.00394-6.47708 0.8065847-9.359375 2.3378906l-5.8457031 29.644531a20 20 0 0 0 7.1093751 5.279297l2.136719-11.207031c2.139223 0.121559 4.766598 0.130548 7.5-0.242188 3.162678-0.431275 6.563535-1.334696 9.466796-3.578125 2.903262-2.24343 4.992188-5.686756 4.992188-10.234375 0-1.763072-0.256297-3.401578-0.710938-4.892578-3.799916-4.5064983-9.394328-7.1071712-15.289062-7.107422zm0.53125 5.837891c0.805988-0.0032 1.599707 0.04315 2.386719 0.11914 1.59332 0.234312 2.858322 0.764144 3.640625 1.523438s1.441406 1.829055 1.441406 4.519531c0 2.452381-0.661074 3.759055-1.882812 4.703125-1.221739 0.944071-3.320882 1.765259-5.658204 2.083984-1.650857 0.225117-3.340932 0.257473-4.849609 0.212891l2.460937-12.982422c0.836695-0.123738 1.65495-0.176487 2.460938-0.179687z" style="opacity:.2"/>
 <path d="m24 4c-3.263818 0.00394-6.47708 0.8065847-9.359375 2.3378906l-6.0058594 30.457031c1.9295994 2.305984 4.3543084 4.147214 7.0937504 5.386719l2.3125-12.126485c2.139223 0.121559 4.766598 0.130549 7.5-0.242187 3.162678-0.431275 6.563535-1.334696 9.466796-3.578125 2.903262-2.24343 4.992188-5.687225 4.992188-10.234844 0-1.763072-0.256297-3.401578-0.710938-4.892578-3.799916-4.5064982-9.394328-7.1071712-15.289062-7.107422zm0.53125 5.8378906c0.805988-0.0032 1.599707 0.043148 2.386719 0.1191406 1.59332 0.2343118 2.858322 0.7641438 3.640625 1.5234378s1.441406 1.829055 1.441406 4.519531c0 2.452381-0.661074 3.759055-1.882812 4.703125-1.221739 0.944071-3.320882 1.765705-5.658204 2.08443-1.650857 0.225117-3.340932 0.257473-4.849609 0.212891l2.460937-12.982868c0.836695-0.1237377 1.65495-0.1764869 2.460938-0.1796874z" style="fill:#ffffff"/>
 <path d="m24 4a20 20 0 0 0 -19.859 17.852 20 19 0 0 1 19.859 -16.852 20 19 0 0 1 19.922 17.447 20 20 0 0 0 -19.922 -18.447zm19.922 18.447a20 20 0 0 1 0.078 1.553 20 19 0 0 0 -0.078 -1.553zm-39.781-0.595a20 19 0 0 0 -0.0488 0.392 20 20 0 0 1 0.0488 -0.392zm-0.0488 0.392a20 20 0 0 0 -0.0918 1.756 20 19 0 0 1 0.0918 -1.756z" fill="#ffffff" opacity=".2"/>
</svg>

<svg xmlns="http://www.w3.org/2000/svg" width="48" height="48" version="1.1" viewBox="0 0 48 48">
 <path style="opacity:0.2" d="M 24,5 A 20,20 0 0 0 4,25 20,20 0 0 0 24,45 20,20 0 0 0 44,25 20,20 0 0 0 24,5 Z"/>
 <path style="fill:#ff8e20" d="m24 4a20 20 0 0 0 -20 20 20 20 0 0 0 20 20 20 20 0 0 0 20 -20 20 20 0 0 0 -20 -20z"/>
 <path style="opacity:0.2" d="M 24 5 C 20.736182 5.00394 17.52292 5.8065847 14.640625 7.3378906 L 8.7949219 36.982422 A 20 20 0 0 0 15.904297 42.261719 L 18.041016 31.054688 C 20.180239 31.176247 22.807614 31.185236 25.541016 30.8125 C 28.703694 30.381225 32.104551 29.477804 35.007812 27.234375 C 37.911074 24.990945 40 21.547619 40 17 C 40 15.236928 39.743703 13.598422 39.289062 12.107422 C 35.489146 7.6009237 29.894734 5.0002508 24 5 z M 24.53125 10.837891 C 25.337238 10.834691 26.130957 10.881041 26.917969 10.957031 C 28.511289 11.191343 29.776291 11.721175 30.558594 12.480469 C 31.340897 13.239763 32 14.309524 32 17 C 32 19.452381 31.338926 20.759055 30.117188 21.703125 C 28.895449 22.647196 26.796306 23.468384 24.458984 23.787109 C 22.808127 24.012226 21.118052 24.044582 19.609375 24 L 22.070312 11.017578 C 22.907007 10.89384 23.725262 10.841091 24.53125 10.837891 z"/>
 <path style="fill:#ffffff" d="M 24,4 C 20.736182,4.00394 17.52292,4.8065847 14.640625,6.3378906 L 8.6347656,36.794922 c 1.9295994,2.305984 4.3543084,4.147214 7.0937504,5.386719 l 2.3125,-12.126485 c 2.139223,0.121559 4.766598,0.130549 7.5,-0.242187 3.162678,-0.431275 6.563535,-1.334696 9.466796,-3.578125 C 37.911074,23.991414 40,20.547619 40,16 40,14.236928 39.743703,12.598422 39.289062,11.107422 35.489146,6.6009238 29.894734,4.0002508 24,4 Z m 0.53125,5.8378906 c 0.805988,-0.0032 1.599707,0.043148 2.386719,0.1191406 1.59332,0.2343118 2.858322,0.7641438 3.640625,1.5234378 C 31.340897,12.239763 32,13.309524 32,16 c 0,2.452381 -0.661074,3.759055 -1.882812,4.703125 -1.221739,0.944071 -3.320882,1.765705 -5.658204,2.08443 -1.650857,0.225117 -3.340932,0.257473 -4.849609,0.212891 l 2.460937,-12.982868 c 0.836695,-0.1237377 1.65495,-0.1764869 2.460938,-0.1796874 z"/>
 <path fill="#ffffff" opacity=".2" d="m24 4a20 20 0 0 0 -19.859 17.852 20 19 0 0 1 19.859 -16.852 20 19 0 0 1 19.922 17.447 20 20 0 0 0 -19.922 -18.447zm19.922 18.447a20 20 0 0 1 0.078 1.553 20 19 0 0 0 -0.078 -1.553zm-39.781-0.595a20 19 0 0 0 -0.0488 0.392 20 20 0 0 1 0.0488 -0.392zm-0.0488 0.392a20 20 0 0 0 -0.0918 1.756 20 19 0 0 1 0.0918 -1.756z"/>
</svg>
